X:1
T:A New Song
M:C
L:1/16
R:Air
B:The Gentleman’s Magazine, Vol. XIV (1744, p. 444)
Z:AK/Fiddler’s Companion
K:Bb
B4 B/c/d3 {d}c4 fA3|B4 ec3 {B}TA4|BF3 G_A3 G2=A2 B4|c/d/e3 d2{d}Tc8|
B4 B/c/d3 {d}c4 fA3|B4 ec3 {B}A8|BF3 G_A3 Gg3ec3|{B}TA6 B2 B8||
A4 B/c/d3 dc3 BA3|cB3 AG3 {B}TA8|cA3 GF3 D2=E2 F4|G/A/B3 A4 {B}TG8|
c4 B/c/d3 dc3 BA3|B=e3gB3 {B}TA8|cA3GF3 Dd3BG3|T=E6F F8|
B4 B/c/d3 {d}c3gA3|B2 ec3 {B}TA8|BF3 G_A3 G2=A2 B4|c/d/e3 d2 {d}Tc8|
B4 B/c/d3 c4 fA3|B4 ec3 {B}TA8|BF3 G_A3 Gg3ec3|{B}TA6B2 B8||

